src/xmb/flatui/Nintendo - Family Computer Disk System-content.svg

<?xml version="1.0" encoding="UTF-8" standalone="no"?>
<svg
   enable-background="new 0 0 256 256"
   viewBox="0 0 256 256"
   version="1.1"
   id="svg68"
   sodipodi:docname="Nintendo - Family Computer Disk System-content.svg"
   inkscape:version="1.2.2 (732a01da63, 2022-12-09)"
   inkscape:export-filename="Nintendo - Family Computer Disk System-content.png"
   inkscape:export-xdpi="96"
   inkscape:export-ydpi="96"
   xmlns:inkscape="http://www.inkscape.org/namespaces/inkscape"
   xmlns:sodipodi="http://sodipodi.sourceforge.net/DTD/sodipodi-0.dtd"
   xmlns="http://www.w3.org/2000/svg"
   xmlns:svg="http://www.w3.org/2000/svg">
  <defs
     id="defs72" />
  <sodipodi:namedview
     id="namedview70"
     pagecolor="#ffffff"
     bordercolor="#000000"
     borderopacity="0.25"
     inkscape:showpageshadow="2"
     inkscape:pageopacity="0.0"
     inkscape:pagecheckerboard="0"
     inkscape:deskcolor="#d1d1d1"
     showgrid="false"
     inkscape:zoom="3.3085938"
     inkscape:cx="32.340023"
     inkscape:cy="128.45336"
     inkscape:window-width="1920"
     inkscape:window-height="1027"
     inkscape:window-x="-8"
     inkscape:window-y="-8"
     inkscape:window-maximized="1"
     inkscape:current-layer="svg68" />
  <path
     d="m223.238 12.019h-19.048l-4.19 3.981h-48.19l-3.81-3.981h-40l-3.81 3.981h-47.619l-4.762-3.981h-19.047c-2.633 0-4.762 2.074-4.762 4.64v222.701c0 2.187 2.517 4.64 4.762 4.64h190.476c3.188 0 4.762-2.089 4.762-4.64v-222.701c0-2.566-2.142-4.895-4.762-4.64z"
     fill="#eec41b"
     id="path38"
     style="fill:#f1c40f;fill-opacity:1" />
  <path
     d="m152 16-4-3.981h-40l-4 3.981v102.73c0 14.363 9.599 25.27 23.962 25.27 14.124 0 24.038-11.146 24.038-25.27 0-.119 0-102.73 0-102.73z"
     fill="#f19c21"
     id="path40"
     style="fill:#f39c12;fill-opacity:1" />
  <path
     d="m120 20h16v68h-16z"
     fill="#223140"
     id="path42"
     style="fill:#34495e;fill-opacity:1" />
  <path
     d="m188.923 156c2.808 0 5.077 2.781 5.077 6.222v43.556c0 3.441-2.269 6.222-5.077 6.222h-121.846c-2.808 0-5.077-2.781-5.077-6.222v-43.556c0-3.441 2.269-6.222 5.077-6.222z"
     fill="#1b80bb"
     id="path46"
     style="fill:#3498db;fill-opacity:1" />
  <circle
     cx="128.00002"
     cy="120"
     fill="#223140"
     id="circle58"
     style="stroke-width:0.999994;fill:#34495e;fill-opacity:1"
     r="22" />
  <circle
     cx="128"
     cy="120"
     fill="#edefef"
     r="18"
     id="circle60"
     style="fill:#ecf0f1;fill-opacity:1" />
</svg>

<svg xmlns="http://www.w3.org/2000/svg" viewBox="0 0 256 256"><path fill="#eec41b" d="M223.238 12.019H204.19L200 16h-48.19L148 12.019h-40L104.19 16H56.571l-4.762-3.981H32.762c-2.633 0-4.762 2.074-4.762 4.64V239.36c0 2.187 2.517 4.64 4.762 4.64h190.476c3.188 0 4.762-2.089 4.762-4.64V16.659c0-2.566-2.142-4.895-4.762-4.64" style="fill:#f1c40f;fill-opacity:1"/><path fill="#f19c21" d="m152 16-4-3.981h-40L104 16v102.73c0 14.363 9.599 25.27 23.962 25.27C142.086 144 152 132.854 152 118.73z" style="fill:#f39c12;fill-opacity:1"/><path fill="#223140" d="M120 20h16v68h-16z" style="fill:#34495e;fill-opacity:1"/><path fill="#1b80bb" d="M188.923 156c2.808 0 5.077 2.781 5.077 6.222v43.556c0 3.441-2.269 6.222-5.077 6.222H67.077c-2.808 0-5.077-2.781-5.077-6.222v-43.556c0-3.441 2.269-6.222 5.077-6.222z" style="fill:#3498db;fill-opacity:1"/><circle cx="128" cy="120" r="22" fill="#223140" style="stroke-width:.999994;fill:#34495e;fill-opacity:1"/><circle cx="128" cy="120" r="18" fill="#edefef" style="fill:#ecf0f1;fill-opacity:1"/></svg>
